brandFactory_export/2.Regular/Focus enfoque_2Regular.svg

<?xml version="1.0" encoding="UTF-8"?>
<svg width="24px" height="24px" viewBox="0 0 24 24" version="1.1" xmlns="http://www.w3.org/2000/svg" xmlns:xlink="http://www.w3.org/1999/xlink">
    <title>2.Regular/Focus enfoque_2Regular</title>
    <g id="Symbols" stroke="none" stroke-width="1" fill="none" fill-rule="evenodd">
        <g id="2.Regular/Focus-enfoque_2Regular" fill="#5CB615" fill-rule="nonzero">
            <path d="M12.6319328,19.6840336 L12.6319328,17.1226891 C12.6319328,16.7226891 12.3058824,16.4 11.9058824,16.4 C11.5058824,16.4 11.1798319,16.7226891 11.1798319,17.1226891 L11.1798319,19.687395 C9.21680672,19.5865546 4.4907563,18.7092437 3.97983193,12.7966387 L6.56134454,12.7966387 C6.96134454,12.7966387 7.28739496,12.4739496 7.28739496,12.0739496 C7.28739496,11.6739496 6.96134454,11.3512605 6.56134454,11.3512605 L3.94621849,11.3512605 C4.14117647,4.75630252 9.21008403,3.89915966 11.1831933,3.82184874 L11.1831933,6.50084034 C11.1831933,6.90084034 11.5092437,7.22352941 11.9092437,7.22352941 C12.3092437,7.22352941 12.6352941,6.90084034 12.6352941,6.50084034 L12.6352941,3.83865546 C14.7058824,3.97647059 19.6470588,4.98823529 19.8655462,11.3512605 L17.1294118,11.3512605 C16.7294118,11.3512605 16.4033613,11.6739496 16.4033613,12.0739496 C16.4033613,12.4739496 16.7294118,12.7966387 17.1294118,12.7966387 L19.8386555,12.7966387 C19.3411765,18.6789916 14.6016807,19.5731092 12.6319328,19.6840336 M22.9310924,11.3512605 L21.3142857,11.3512605 C21.0756303,3.55966387 14.6621849,2.5210084 12.6319328,2.39327731 L12.6319328,0.722689076 C12.6319328,0.322689076 12.3058824,0 11.9058824,0 C11.5058824,0 11.1798319,0.322689076 11.1798319,0.722689076 L11.1798319,2.37647059 C9.28403361,2.45042017 2.70252101,3.29411765 2.49411765,11.3512605 L0.756302521,11.3512605 C0.356302521,11.3512605 0.0302521008,11.6739496 0.0302521008,12.0739496 C0.0302521008,12.4739496 0.356302521,12.7966387 0.756302521,12.7966387 L2.53109244,12.7966387 C3.08571429,20.1310924 9.24705882,21.0386555 11.1798319,21.1327731 L11.1798319,22.9008403 C11.1798319,23.3008403 11.5058824,23.6235294 11.9058824,23.6235294 C12.3058824,23.6235294 12.6319328,23.3008403 12.6319328,22.9008403 L12.6319328,21.1294118 C14.5647059,21.0252101 20.7462185,20.1008403 21.2806723,12.7966387 L22.9310924,12.7966387 C23.3310924,12.7966387 23.6571429,12.4739496 23.6571429,12.0739496 C23.6571429,11.6739496 23.3344538,11.3512605 22.9310924,11.3512605" id="Focus-enfoque_2Regular"></path>
        </g>
    </g>
</svg>

<svg width="24" height="24" viewBox="0 0 24 24" xmlns="http://www.w3.org/2000/svg"><path d="M12.632 19.684v-2.561c0-.4-.326-.723-.726-.723-.4 0-.726.323-.726.723v2.564c-1.963-.1-6.69-.978-7.2-6.89H6.56c.4 0 .726-.323.726-.723 0-.4-.326-.723-.726-.723H3.946c.195-6.595 5.264-7.452 7.237-7.53v2.68c0 .4.326.723.726.723.4 0 .726-.323.726-.723V3.839c2.07.137 7.012 1.15 7.23 7.512H17.13c-.4 0-.726.323-.726.723 0 .4.326.723.726.723h2.71c-.498 5.882-5.237 6.776-7.207 6.887m10.3-8.333h-1.618c-.238-7.791-6.652-8.83-8.682-8.958V.723c0-.4-.326-.723-.726-.723-.4 0-.726.323-.726.723v1.653c-1.896.074-8.477.918-8.686 8.975H.756c-.4 0-.726.323-.726.723 0 .4.326.723.726.723h1.775c.555 7.334 6.716 8.242 8.649 8.336V22.9c0 .4.326.723.726.723.4 0 .726-.323.726-.723v-1.772c1.933-.104 8.114-1.028 8.649-8.332h1.65a.722.722 0 100-1.445" fill="#5CB615" fill-rule="nonzero"/></svg>
